gama.ui.shared/icons_svg/dark/viewers/set.delimiter.svg

<svg height="25" viewBox="-706.483 -2925.879 25 25" width="25" xmlns="http://www.w3.org/2000/svg"><g fill="none"><path d="m-702.1428-2925.379h16.32c2.1208 0 3.84 1.719 3.84 3.84v16.32c0 2.1207-1.7192 3.84-3.84 3.84h-16.32c-2.1207 0-3.84-1.7193-3.84-3.84v-16.32c0-2.121 1.7193-3.84 3.84-3.84z" fill="#666"/><path d="m-702.1428-2925.379h16.32c2.1208 0 3.84 1.719 3.84 3.84v16.32c0 2.1207-1.7192 3.84-3.84 3.84h-16.32c-2.1207 0-3.84-1.7193-3.84-3.84v-16.32c0-2.121 1.7193-3.84 3.84-3.84z" stroke="#fff" stroke-linecap="round" stroke-linejoin="round" stroke-width=".25"/><path d="m-697.2702-2906.1516 1.7634-6.7312h4.6882l-2.4516 6.7312zm1.1398-11.3764c0-.3584.0717-.699.215-1.0215.1434-.3225.33695-.6021.5807-.8385.2437-.2367.53045-.423.8602-.5593.32975-.1362.681-.2043 1.0538-.2043.34405 0 .6774.0681 1 .2043.32254.1363.6021.3226.8387.5593.2365.2364.4265.516.5699.8385.1433.3225.215.6631.215 1.0215 0 .3728-.0717.717-.215 1.0323-.1434.3154-.3334.5877-.5699.8172-.2366.2295-.51616.4122-.8387.5485-.3226.136-.65595.2042-1 .2042-.3728 0-.72405-.0682-1.0538-.2042-.32975-.1363-.6165-.319-.8602-.5485-.24375-.2295-.4373-.5018-.5807-.8172-.1433-.3153-.215-.6595-.215-1.0323z" fill="#e3e6e1"/><path d="m-697.2702-2906.1516 1.7634-6.7312h4.6882l-2.4516 6.7312zm1.1398-11.3764c0-.3584.0717-.699.215-1.0215.1434-.3225.33695-.6021.5807-.8385.2437-.2367.53045-.423.8602-.5593.32975-.1362.681-.2043 1.0538-.2043.34405 0 .6774.0681 1 .2043.32254.1363.6021.3226.8387.5593.2365.2364.4265.516.5699.8385.1433.3225.215.6631.215 1.0215 0 .3728-.0717.717-.215 1.0323-.1434.3154-.3334.5877-.5699.8172-.2366.2295-.51616.4122-.8387.5485-.3226.136-.65595.2042-1 .2042-.3728 0-.72405-.0682-1.0538-.2042-.32975-.1363-.6165-.319-.8602-.5485-.24375-.2295-.4373-.5018-.5807-.8172-.1433-.3153-.215-.6595-.215-1.0323z" stroke="#66727e" stroke-linecap="round" stroke-linejoin="round"/></g></svg>

<?xml version="1.0" encoding="UTF-8" standalone="no"?>
<!DOCTYPE svg PUBLIC "-//W3C//DTD SVG 1.1//EN" "http://www.w3.org/Graphics/SVG/1.1/DTD/svg11.dtd">
<svg xmlns="http://www.w3.org/2000/svg" xmlns:xl="http://www.w3.org/1999/xlink" version="1.1" xmlns:dc="http://purl.org/dc/elements/1.1/" viewBox="-706.4828 -2925.879 25 25" width="25" height="25">
  <defs/>
  <g id="SOURCES" stroke-opacity="1" fill="none" stroke="none" fill-opacity="1" stroke-dasharray="none">
    <title>SOURCES</title>
    <g id="SOURCES_Dark">
      <title>Dark</title>
      <g id="Graphic_11004">
        <path d="M -702.1428 -2925.379 L -685.8228 -2925.379 C -683.702 -2925.379 -681.9828 -2923.66 -681.9828 -2921.539 L -681.9828 -2905.219 C -681.9828 -2903.0983 -683.702 -2901.379 -685.8228 -2901.379 L -702.1428 -2901.379 C -704.2635 -2901.379 -705.9828 -2903.0983 -705.9828 -2905.219 L -705.9828 -2921.539 C -705.9828 -2923.66 -704.2635 -2925.379 -702.1428 -2925.379 Z" fill="#666"/>
        <path d="M -702.1428 -2925.379 L -685.8228 -2925.379 C -683.702 -2925.379 -681.9828 -2923.66 -681.9828 -2921.539 L -681.9828 -2905.219 C -681.9828 -2903.0983 -683.702 -2901.379 -685.8228 -2901.379 L -702.1428 -2901.379 C -704.2635 -2901.379 -705.9828 -2903.0983 -705.9828 -2905.219 L -705.9828 -2921.539 C -705.9828 -2923.66 -704.2635 -2925.379 -702.1428 -2925.379 Z" stroke="white" stroke-linecap="round" stroke-linejoin="round" stroke-width=".25"/>
      </g>
      <g id="Graphic_11003">
        <path d="M -697.2702 -2906.1516 L -695.5068 -2912.8828 L -690.8186 -2912.8828 L -693.2702 -2906.1516 Z M -696.1304 -2917.528 C -696.1304 -2917.8864 -696.0587 -2918.227 -695.9154 -2918.5495 C -695.772 -2918.872 -695.57845 -2919.1516 -695.3347 -2919.388 C -695.091 -2919.6247 -694.80425 -2919.811 -694.4745 -2919.9473 C -694.14475 -2920.0835 -693.7935 -2920.1516 -693.4207 -2920.1516 C -693.07665 -2920.1516 -692.7433 -2920.0835 -692.4207 -2919.9473 C -692.09816 -2919.811 -691.8186 -2919.6247 -691.582 -2919.388 C -691.3455 -2919.1516 -691.1555 -2918.872 -691.0121 -2918.5495 C -690.8688 -2918.227 -690.7971 -2917.8864 -690.7971 -2917.528 C -690.7971 -2917.1552 -690.8688 -2916.811 -691.0121 -2916.4957 C -691.1555 -2916.1803 -691.3455 -2915.908 -691.582 -2915.6785 C -691.8186 -2915.449 -692.09816 -2915.2663 -692.4207 -2915.13 C -692.7433 -2914.994 -693.07665 -2914.9258 -693.4207 -2914.9258 C -693.7935 -2914.9258 -694.14475 -2914.994 -694.4745 -2915.13 C -694.80425 -2915.2663 -695.091 -2915.449 -695.3347 -2915.6785 C -695.57845 -2915.908 -695.772 -2916.1803 -695.9154 -2916.4957 C -696.0587 -2916.811 -696.1304 -2917.1552 -696.1304 -2917.528 Z" fill="#e3e6e1"/>
        <path d="M -697.2702 -2906.1516 L -695.5068 -2912.8828 L -690.8186 -2912.8828 L -693.2702 -2906.1516 Z M -696.1304 -2917.528 C -696.1304 -2917.8864 -696.0587 -2918.227 -695.9154 -2918.5495 C -695.772 -2918.872 -695.57845 -2919.1516 -695.3347 -2919.388 C -695.091 -2919.6247 -694.80425 -2919.811 -694.4745 -2919.9473 C -694.14475 -2920.0835 -693.7935 -2920.1516 -693.4207 -2920.1516 C -693.07665 -2920.1516 -692.7433 -2920.0835 -692.4207 -2919.9473 C -692.09816 -2919.811 -691.8186 -2919.6247 -691.582 -2919.388 C -691.3455 -2919.1516 -691.1555 -2918.872 -691.0121 -2918.5495 C -690.8688 -2918.227 -690.7971 -2917.8864 -690.7971 -2917.528 C -690.7971 -2917.1552 -690.8688 -2916.811 -691.0121 -2916.4957 C -691.1555 -2916.1803 -691.3455 -2915.908 -691.582 -2915.6785 C -691.8186 -2915.449 -692.09816 -2915.2663 -692.4207 -2915.13 C -692.7433 -2914.994 -693.07665 -2914.9258 -693.4207 -2914.9258 C -693.7935 -2914.9258 -694.14475 -2914.994 -694.4745 -2915.13 C -694.80425 -2915.2663 -695.091 -2915.449 -695.3347 -2915.6785 C -695.57845 -2915.908 -695.772 -2916.1803 -695.9154 -2916.4957 C -696.0587 -2916.811 -696.1304 -2917.1552 -696.1304 -2917.528 Z" stroke="#66727e" stroke-linecap="round" stroke-linejoin="round" stroke-width="1"/>
      </g>
    </g>
  </g>
</svg>
